X: 7
T: The Cock And The Hen
R: slip jig
M: 9/8
L: 1/8
K: Emin
|:F3 FEF BcA| FG/A/F FEF AFE|F3 FEF Bcd|ec/B/A BAF AFE|
F3 FEF BcA| FG/A/F FEF AFE|F3 FEF Bcd|ecA BAF AFE||
|:ecA ABc d2 f | ecA ABc BAF | ecA ABc dcB | cBA BAF AFE |
ecA ABc de/f/g | aec ABc BAF | ecA ABc dcB | cBA BAF AFE ||


Tune 93	Setting 12641

